X:379
T:B379-  Prithee, Friend, Leave off This Thinking
Q:1/4=120
L:1/4
M:C|
K:C
cGc3/2d/|(e/d/) (f/e/)dc|(e/f/)gc3/2c/|(e/d/) (e/f/)d2:|\
Bdff|(A/B/)cB2|(B/c/)d(e/f/)g|e(d/c/)c2|]

